X:222 
T:Wallop the Spot
B:CRE5.024 (Tabhair Leadradh don Spota)
F:file ID: cre.5/222wallop
S:Paddy Mullin (Longford)
M:6/8
Q:160
R:jig
K:D
E|FEF DFA|BAF dDD|FEF DFA|BAF AGE|
"5"FEF DFA|BAF d2g|fed edA|BdB AG:|
A|"9"Bcd eAA|fAA eAA|c2d eAA|BAF AGE|
"13"Bcd eAA|fAB efg|agf e2d|cBc AF:|
E|"17"DFA dcd|ece d2d|DFA d2A|BdB AFE|
"21"DFA dcd|ece d2g|fed edA|BdB AF:|

%%%

